X:37
T:Rose Dance,The. RHu.037
S:R.Hughes MS,1823,Whitchurch,Shrops.
A:Whitchurch, Shropshire
Z:Neil Brookes 2006
M:2/4
L:1/8
Q:1/2=80
R:Country Dance
K:G
b2gb|afd2|efge|dBG2|b2gb|afd2|egfa|”dcr in MS”g4::!
d2Bd|e2ce|d2Bd|cAA2|d2Bd|e2ce|fdef|”dcr in MS”g4:|

